icons/desktop/15/open-tabs-mask-15.svg

<svg width="15" height="15" viewBox="0 0 15 15" fill="none" xmlns="http://www.w3.org/2000/svg">
<path d="M7.501 1C6.184 1 4.855 1.043 3.549 1.127C1.559 1.256 0 2.922 0 4.919V9.582C0 11.579 1.566 13.245 3.565 13.374C4.87 13.458 6.194 13.5 7.5 13.5C8.806 13.5 10.139 13.457 11.45 13.373C13.441 13.244 15 11.578 15 9.581V4.918C15 2.921 13.434 1.255 11.435 1.126C10.137 1.042 8.812 1 7.501 1Z" fill="white"/>
<path fill-rule="evenodd" clip-rule="evenodd" d="M7.5 2.25488C8.70907 2.25488 9.99758 2.29182 11.3555 2.37891C12.6906 2.46499 13.7499 3.56523 13.75 4.91895V9.58105C13.7499 10.9239 12.7116 12.0332 11.3711 12.1211C10.1507 12.2001 8.85666 12.2461 7.5 12.2461C6.29092 12.2461 5.00242 12.2092 3.64453 12.1221C2.30943 12.036 1.25008 10.9357 1.25 9.58203V4.91992C1.25006 3.57706 2.28842 2.46777 3.62891 2.37988C4.84932 2.30089 6.14334 2.25488 7.5 2.25488ZM6.5 3.76465C5.86108 3.77558 5.23798 3.79551 4.63184 3.8252L3.72656 3.87598C3.17539 3.91234 2.75006 4.36707 2.75 4.91992V9.58203C2.75008 10.1301 3.18057 10.5889 3.74121 10.625C5.06526 10.7099 6.32113 10.7461 7.5 10.7461C8.8232 10.7461 10.084 10.701 11.2734 10.624L11.375 10.6133C11.876 10.5315 12.2499 10.0994 12.25 9.58105V6.23438H7.25C6.83613 6.23438 6.50021 5.89724 6.5 5.48242V3.76465Z" fill="black"/>
</svg>

<!-- This Source Code Form is subject to the terms of the Mozilla Public
   - License, v. 2.0. If a copy of the MPL was not distributed with this
   - file, You can obtain one at http://mozilla.org/MPL/2.0/. -->
<svg xmlns="http://www.w3.org/2000/svg" width="15" height="15" fill="context-fill" fill-opacity="context-fill-opacity" viewBox="0 0 15 15">
    <path d="M7.501 1c-1.317 0-2.646.043-3.952.127A3.806 3.806 0 0 0 0 4.919v4.663a3.813 3.813 0 0 0 3.565 3.792 62 62 0 0 0 7.885-.001A3.806 3.806 0 0 0 15 9.581V4.918a3.813 3.813 0 0 0-3.565-3.792A61 61 0 0 0 7.501 1" />
    <path fill-rule="evenodd" d="M7.5 2.255c1.21 0 2.498.037 3.855.124a2.55 2.55 0 0 1 2.395 2.54V9.58a2.543 2.543 0 0 1-2.379 2.54 60 60 0 0 1-7.726.001 2.55 2.55 0 0 1-2.395-2.54V4.92a2.543 2.543 0 0 1 2.379-2.54A60 60 0 0 1 7.5 2.255m-1 1.51q-.959.015-1.868.06l-.905.051A1.043 1.043 0 0 0 2.75 4.92v4.662c0 .548.43 1.007.991 1.043a59 59 0 0 0 7.532-.001l.102-.01c.501-.083.875-.515.875-1.033V6.234h-5a.75.75 0 0 1-.75-.752z" clip-rule="evenodd" />
</svg>
